X: 1
T: Ersko Kolo  [D]
O: Croatia
Z: 1999 John Chambers <jc:trillian.mit.edu> http://trillian.mit.edu/~jc/music/Intl/
M: 2/4
L: 1/8
K: D
P: Slow
|: "D"[d2A] {e}[fd][dA] | {e}[fd][dA] {e}[fd][dA] | "A7"[e/c][f/d][ge] [ge][ge] | [ge][ge] [g/e][f/d][ec] |\
|  "D"[d2A] {e}[fd][dA] | {e}[fd][dA] {e}[fd][dA] | "E7"[c/A][d/A][ec] [eB][eB] | "A"[eA]z [aA]z :|
P: Fast
|: "D"[d/A][e/c][fd] [fd][fd] | [f2d] [ec][dA] | "A7"[e/c][f/d][ge] [ge][ge] | [ge][ge] [g/e][f/d][ec] |\
|  "D"[d/A][e/c][fd] [fd][fd] | [f2d] [ec][dA] | "E7"[c/A][d/B][ec] [eB][eB] | "A"[eA]z [aA]z :|

%%sep 5 1 500
%%sep 1 5 500


